src/assets/images/prototype/produits-utilises/7-degraissant.svg

<svg width="326" height="714" viewBox="0 0 326 714" fill="none" xmlns="http://www.w3.org/2000/svg">
<mask id="mask0_1069_5" style="mask-type:alpha" maskUnits="userSpaceOnUse" x="0" y="0" width="326" height="714">
<rect width="326" height="714" fill="#D9D9D9"/>
</mask>
<g mask="url(#mask0_1069_5)">
<path d="M148.633 166.066C140.839 171.58 125.239 186.725 125.181 203.202C125.109 223.798 143.432 248.794 138.865 267.929C134.297 287.064 40.5262 425.488 24.776 483.247C9.0258 541.005 15.8844 685.203 42.4493 693.607C69.0142 702.011 135.714 699.354 179.487 700.953C223.26 702.552 279.331 697.329 291.658 682.196C303.986 667.063 316.776 520.044 304.791 437.617C292.806 355.19 267.777 258.987 257.222 235.463C248.777 216.644 228.134 181.522 219.869 166.316" stroke="#D9D9D9" stroke-width="5" stroke-dasharray="10 10"/>
<path d="M148.781 165.58L148.984 107.744M219.11 107.99L218.907 165.826" stroke="#D9D9D9" stroke-width="5" stroke-dasharray="10 10"/>
<path d="M148.613 108.467C145.077 104.218 138.825 97.4019 131.774 91.0435M84.0298 73.8994C89.484 73.9186 94.4203 72.5923 101.694 73.8994M84.1985 25.8234C110.005 19.8893 170.352 11.6666 205.292 26.2483C248.967 44.4755 275.302 59.7502 265.48 77.4281C255.658 95.1059 240.865 87.1015 231.091 91.0435C223.272 94.197 219.599 104.137 218.739 108.713" stroke="#D9D9D9" stroke-width="5" stroke-dasharray="10 10"/>
<path d="M83.5596 26.459C74.8749 29.0793 57.6402 37.1401 58.179 48.4201C58.7178 59.7001 75.2123 70.289 83.3921 74.1735" stroke="#D9D9D9" stroke-width="5" stroke-dasharray="10 10"/>
<path d="M130.969 90.2424C127.582 94.2114 118.513 103.415 109.334 108.478C97.8608 114.807 89.5877 119.821 79.7038 128.544C69.8199 137.267 58.8438 153.682 50.5968 151.265C42.3498 148.847 45.2857 147 50.6443 137.73C56.0029 128.46 91.8253 89.3089 93.1727 84.8021C94.2505 81.1966 96.6659 75.8796 97.7389 73.6718" stroke="#D9D9D9" stroke-width="5" stroke-dasharray="10 10"/>
</g>
</svg>

<svg width="326" height="714" fill="none" xmlns="http://www.w3.org/2000/svg"><mask id="a" style="mask-type:alpha" maskUnits="userSpaceOnUse" x="0" y="0" width="326" height="714"><path fill="#D9D9D9" d="M0 0h326v714H0z"/></mask><g mask="url(#a)" stroke="#D9D9D9" stroke-width="5" stroke-dasharray="10 10"><path d="M148.633 166.066c-7.794 5.514-23.394 20.659-23.452 37.136-.072 20.596 18.251 45.592 13.684 64.727-4.568 19.135-98.339 157.559-114.089 215.318-15.75 57.758-8.892 201.956 17.673 210.36 26.565 8.404 93.265 5.747 137.038 7.346 43.773 1.599 99.844-3.624 112.171-18.757 12.328-15.133 25.118-162.152 13.133-244.579-11.985-82.427-37.014-178.63-47.569-202.154-8.445-18.819-29.088-53.941-37.353-69.147m-71.088-.736l.203-57.836m70.126.246l-.203 57.836m-70.294-57.359c-3.536-4.249-9.788-11.065-16.839-17.424M84.03 73.9c5.454.02 10.39-1.307 17.664 0M84.198 25.823c25.807-5.934 86.154-14.156 121.094.425 43.675 18.227 70.01 33.502 60.188 51.18-9.822 17.678-24.615 9.674-34.389 13.615-7.819 3.154-11.492 13.094-12.352 17.67M83.56 26.459c-8.685 2.62-25.92 10.681-25.381 21.961.539 11.28 17.033 21.869 25.213 25.754"/><path d="M130.969 90.242c-3.387 3.97-12.456 13.173-21.635 18.236-11.473 6.329-19.746 11.343-29.63 20.066-9.884 8.723-20.86 25.138-29.107 22.721-8.247-2.418-5.311-4.265.047-13.535 5.359-9.27 41.181-48.421 42.529-52.928 1.078-3.605 3.493-8.922 4.566-11.13"/></g></svg>
